X: 21571
T: WOOD'S HORNPIPE
R: hornpipe, reel
B: K\"ohler's Violin Repository, v.2, 1885 p.157 #1
F: http://www.archive.org/details/klersviolinrepos02rugg
Z: 2012 John Chambers <jc:trillian.mit.edu>
M: C|
L: 1/8
K: A
u((3EFG) |\
A2A2 A2(cd) | ecea ecBA | fedc dcBA | GABc B2((3EFG) |\
A2A2 A2(cd) | ecea ecBA | fedc dcBA | E2G2 A2 :|
|: u(cd) |\
ecea ecea | fdfa fdfa | fedc dcBA | GABc [B2G2](cd) |\
ecea ecea | fdfa fdfa | fedc dcBA | E2G2 A2 :|

%%sep 2 1 500

